X:1
T:Un sueño en la Floresta
T:Un sueño en la Floresta
T:(Guitar solo)
T:Agustín Barrios Mangoré
C:Agustín Barrios Mangoré
%%score ( 1 2 )
L:1/8
Q:1/4=120
M:2/2
K:G
V:1 treble-8 nm="Classical Guitar" snm="Guit."
V:2 treble-8 
V:1
"^Intoduccion""_=G""_=D" [DBg]6 [DBg]2 | g2 f2 c'2 b2 | a2 g2!-(!{/b} !-)!d'2 d'2 | %3
 !fermata!d'3 c'[Q:1/4=100]"_rall." baf'e' |[Q:1/4=120]"_a tempo" [cfa]8 | [cf^a]8 |1 [Gdgb]8 :|2 %7
 !arpeggio![B,F^db]8 || b2 b2!-(!{/d'} !-)!e'2 e'2 | d'2 d'2 b2 b2 | g2 g2!-(!{/a} !-)!c'2 c'2 | %11
 c'2 c'2 [ge']4 | a2 a2 b2 a2 | d'2 d'2 [eg]2 [cec']2 | [dgb]4 [cfa]4 | %15
 !fermata![Bdg]4 z"_pizz." .d.d.d ||[M:3/4]"_poco mas." .d.c .d._e .c.d | ._B.c .A.B .G.A | %18
 .=F.G ._E.D .^F.A | .D2 .D4 || G,gBgdg | G,gBgdg |: %22
[M:6/8][Q:1/4=70]"^Lento" G,/4b/4b/4b/4 g/4b/4b/4b/4 B/4b/4b/4b/4 g/4g/4g/4g/4 B/4^f/4f/4f/4 e/4g/4g/4g/4 | %23
"^trem. sigue" !//!e'!//!e'!//!e' !//!e'!//!d'!//!d' | %24
 !//!d'!//!d'!//!d' !-(!!//!d'!-(!!//!^c'!-)!!//!d' | !//!a!//!a!//!a !//!a!//!a!//!a | %26
 !//!c'!//!c'!//!c' !//!c'!//!b!//!c' | !//!f'!//!f'!//!f' !//!f'!//!e'!//!e' | %28
 !//!e'!//!e'!//!e' !//!e'!//!^c'!//!d' | !//!b!//!b!//!b !//!b!//!b!//!b | %30
 !//!d'!//!d'!//!d' !-(!!//!d'!-(!!//!^c'!-)!!//!d' | !//!a'!//!a'!//!a' !//!a'!//!g'!//!g' | %32
 !//!g'!//!g'!//!g' !//!g'!//!g'!//!g' | !//!a!//!a!//!a !//!a!//!a!//!a | %34
 !//!d'!//!d'!//!d' !//!d'!//!d'!//!d' | !//!e'!//!e'!//!e' !//!e'!//!d'!//!d' | %36
 !//!d'!//!d'!//!d' !//!d'!//!^c'!//!d' | !//!f'!//!f'!//!f' !//!f'!//!g'!//!g' |1 %38
 !//!e'!//!e'!//!e' !//!e'!//!e'!//!e' | !//!d'!//!d'!//!d' !//!d'!//!e'!//!e' | %40
 !//!d'!//!d'!//!c' !//!c'!//!=b!//!b | !//!a!//!a!//!a !//!a!//!^a!//!a :|2 %42
 !//!e'!//!e'!//!e' !//!e'!//!c'!//!c' | !//!a!//!a!//!a !//!a!//!^a!//!a || %44
 !//!b!//!b!//!b !//!b!//!b!//!b | !//!b!//!b!//!b !//!b!-(!!//!^a!-)!!//!b | %46
 !//!c'!//!c'!//!c' !//!c'!//!b!//!b | !//!^a!//!a!//!a !//!a!//!a!//!a | %48
 !//!^a!//!a!//!a !//!a!//!a!//!a | !//!=a!//!a!//!a !//!a!//!^g!//!a | %50
 !//!=g!//!g!//!f !//!f!//!g!//!g | !//!f!//!f!//!f !//!f!//!f!//!f | %52
 !//!f!//!f!//!g !//!g!//!a!//!a | !//!b!//!b!//!b !-(!!//!b!-(!!//!^a!-)!!//!b | %54
 !//!e'!//!e'!//!e' !//!e'!//!f'!//!f' | !//!e'!//!e'!//!e' !//!e'!//!d'!//!d' | %56
 !//!d'!//!d'!//!d' !//!d'!//!e'!//!e' | !//!d'!//!d'!//!d' !//!d'!//!c'!//!c' | %58
 !//!a!//!a!//!a[Q:1/4=60]"_rit." !//!a!//!b!//!b | %59
[Q:1/4=120]"_a tempo" !-(![cfa]2 !-)![B=f^g] [d=gb] [c^fa]2 | %60
 !-(![^cg_b]2 !-(![=cfa] !-(![^dac'] !-)![^cg_b]2 | [_eac']3 [=f=bd']3 | !fermata![^fc'f']6 || %63
[M:2/4][Q:1/4=92]"^Andante" z [GB]2 [GB]- | [GB] [GB]2 [GB] |: z [bd']2 [bd'] | z [gb] z [dg] | %67
 z [gc']2 [gc'] | z [ad'] z [gc'] | z [cf]2 [cf] | %70
[Q:1/4=80]"_rit."!-(!{/A} !-)!B/B/(3(B/c/d/) !fermata!c2 |[Q:1/4=92]"_a tempo" z [dg]2 [dg] | %72
 z [Bd]2 [Bd] | z [be']2 [be'] | z [^ae'] z [ea] | z [f^c']2 [fc'] | [fb]2 z2 |1 z [e^a]2 [ea] | %78
[Q:1/4=80]"_rit." ^A2 !fermata!d!-(!!fermata!^c |[Q:1/4=92]"_a tempo" z [dfb]2 [dfb] | %80
 z [fc'd']2 [fc'd'] :|2 z [B^e]2 [Be] | z [B^e] z [Be] || %83
 (6:4:6F,/F/A/^d/A/F/ (6:4:6!-(!A,/F/A/d/A/F/ | %84
 (6:4:6!-(!^B,/A/c/f/c/A/ (6:4:6!-(!^D/^B/^d/a/d/B/ | %85
 (6:4:6!-)!F/^d/f/^b/^d'/b/ (6:4:6f/d/f/b/d'/f'/ || %86
[M:6/4] a'>"_ad lib."a' a'g'/f'/[Q:1/4=102]"_ràpido" g'/4a'/4g'/4f'/4_e'/4d'/4=f'/4e'/4 d'/4c'/4_b/4a/4g/4f/4_e/4d/4 c/4_B/4A/4G/4F/4D/4_E/4D/4[Q:1/4=92]"_a tempo" !fermata![D_B]!fermata![D,CFA] || %87
[K:Bb][M:6/8][Q:1/4=70]"^Lento" z DB DBD | z DB DBD | %89
 G,/4d/4d/4d/4 D/4d/4d/4d/4 B/4e/4e/4e/4 D/4e/4e/4e/4 B/4^f/4f/4f/4 D/4f/4f/4f/4 | %90
"^trem. sigue" !//!g!//!g!//!a !//!a!//!b!//!b | !//!c'!//!c'!//!c' !//!c'!//!a!//!a | %92
 !//!g!//!g!//!g !//!g!//!^f!//!f | !//!d!//!d!//!e !//!e!//!^f!//!f | %94
 !//!g!//!g!//!a !//!a!//!b!//!b | !//!e'!//!e'!//!e' !//!e'!//!e'!//!e' | %96
 !//!d'!//!d'!//!d' !//!d'!//!d'!//!d' | !//!c'!//!c'!//!d' !//!d'!//!e'!//!e' | %98
 !//!f'!//!f'!//!f' !//!f'!//!f'!//!f' | !//!c'!//!c'!//!d' !//!d'!//!e'!-(!!//!e' | %100
 !-)!!//!g'!//!g'!//!g' !//!g'!//!g'!//!g' | !//!f'!//!f'!//!d' !//!d'!//!b!//!b | %102
 !//!a!//!a!//!a !//!a!//!a!//!a | !//!a!//!a!//!a !//!a!//!a!//!a | %104
 !//!a!//!a!//!a !//!a!//!a!//!a | !//!c'!//!c'!//!c' !//!c'!//!c'!//!c' | %106
 !//!=e'!//!e'!//!e' !//!e'!//!e'!//!e' | !//!a'!//!a'!//!a' !//!a'!//!a'!//!a' | %108
"^(C traste 20)*" !//!c''!//!c''!//!c'' !//!c''!//!c''!//!c'' | %109
 !//!c''!//!c''!//!c'' !//!c''!//!=b'!//!b' | !//!a'!//!a'!//!a' !//!a'!//!g'!//!g' | %111
"_* Barrios had on his guitar one more fret and could play the high C on 20th fret. \nThose who can not reach this high C can use the A note on 17th fret instead.\n" !//!^f'!//!f'!//!f' !//!f'!//!f'!//!f' | %112
 !//!=e'!//!e'!//!e' !//!e'!//!e'!//!e' | !//!d'!//!d'!//!d' !//!d'!//!d'!//!d' | %114
 !//!c'!//!c'!//!c' !//!c'!//!c'!//!c' ||[K:G] !//!b!//!b!//!b !//!b!//!b!//!b | %116
 !//!c'!//!c'!//!c' !//!d'!//!e'!//!d' | !//!a!//!a!//!a !//!b!//!c'!//!b | %118
 !//!^a!-(!!//!a!-)!!//!b !//!b!//!g!//!g | !//!b!//!b!//!b !//!b!//!b!//!b | %120
 !//!c'!//!c'!//!c' !//!d'!//!e'!//!d' | !//!a!//!a!//!a !//!b!//!c'!//!b | %122
 !//!^a!-(!!//!a!-)!!//!b !//!b!//!g!//!g | !//!b!//!b!//!b !//!b!//!b!//!b | %124
 !//!b!//!b!//!b !//!b!//!b!//!b | !//!c'!//!c'!//!c' !//!c'!//!c'!//!c' | %126
 !//!^c'!//!c'!//!c' !//!c'!//!c'!//!c' | !//!d'!//!d'!//!d' !//!d'!//!d'!//!d' | %128
 !//!d'!//!d'!//!d' !//!d'!//!d'!//!d' | !//!d'!//!d'!//!d' !//!d'!//!d'!//!d' | %130
 !//!d'!//!d'!//!d' !-(!!//!e'!-)!!//!f'!//!d' | !//!e'!-(!!//!e'!-)!!//!d' !//!d'!//!d'!//!d' | %132
 !//!a!//!a!//!b !//!b!//!c'!//!c' | !//!b!//!b!//!b !//!b!//!b!//!b | %134
 !//!d'!//!d'!//!d' !-(!!//!e'!-)!!//!f'!//!f' | !//!g'!-(!!//!g'!-)!!//!f' !//!f'!//!e'!//!e' | %136
 !//!d'!//!d'!//!d' !-(!!//!e'!-(!!//!f'!-)!!//!d' | !//!c'!//!c'!//!b !//!b!//!a!//!a | %138
 !//!e'!//!e'!//!e' !-(!!//!e'!-)!!//!g!//!g | !//!b!//!b!//!b !-(!!//!b!-)!!//!a!//!a | %140
 !//!g!//!g!//!g !//!g!//!g!//!a | !//!b!//!b!//!b !//!b!//!a!//!a | %142
 !//!g!//!g!//!g !//!g!//!a!//!a | !//!g!//!g!//!g !//!g!//!a!//!a | %144
 !//!b!//!b!//!b !//!b!//!b!//!b | !//!d'!//!d'!//!d' !//!d'!//!d'!//!d' | %146
 !//!g'!//!g'!//!g' !//!g'!//!g'!//!g' | !//!b'!//!b'!//!b' !//!b'!//!b'!//!b' | %148
 !//!b'!//!b'!//!b' !//!b'!//!b'!//!b' | !fermata![dbb']3 !fermata![Bdg]3 |] %150
V:2
 G,6 G,2 | [A,Dc]4 z4 | [B,Gd]4 z4 | !fermata![CGe]4 z4 | z2 D2 D2 D2 | z2 D2 D2 D2 |1 x8 :|2 x8 || %8
 [eg]4 z4 | [fb]4 [eg]4 | [Be]4 z4 | [Ae]4 c2 ^c2 | [df]4 !-(!_d2 !-)!=c2 | [Bg]4 E2 A,2 | D4 D,4 | %15
 !fermata!G,4 z4 ||[M:3/4] x6 | x6 | x6 | x6 || G,2 B2 d2 | G,2 B2 d2 |:[M:6/8] G,gB gBe | %23
 G,bd bgb | D,c'd c'f=c' | D,fc ^ced | D,fA fdf | D,c'd c'fc' | G,bd bgb | G,gB gdg | G,bd bgb | %31
 G,bd bgb | Cae aga | CeA eAc | ^G,=fB fBf | B,=fB fBf | A,^fc fdf | D,c'd c'dc' |1 D,gc gcg | %39
 D,^g=f g=g_b | fae gdg | df^c f=cD :|2 D,gc geg | Dfc fcf || B,^dF dBd | EgB geg | Ege geg | %47
 Ef^A f^cf | ef^c f^Af | ^DBA B^dB | EBA, c^A,^c | B,^dF dFd | ^D,AE, BF,c | G,gB gdg | %54
 ^A,g^c gcg | B,Bf BfB | ^G,B=f BfB | A,Ae AeA | D,Dc DcD | D/D/D/D/D/D/ D/D/D/D/D/D/ | %60
 D/D/D/D/D/D/ D/D/D/D/D/D/ | z/ D,/D,/D,/D,/D,/ z/ D,/D,/D,/D,/D,/ | !fermata!d6 ||[M:2/4] G,4- | %64
 G,4 |: [G,g]4 |!-(!{/e} !-)!d2!-(!{/c} !-)!B2 | [G,e]4 |!-(!{/e} !-(!f2 !-)!e2 | [D,A]4 | %70
 !fermata!z4 | [G,B]4 |!-(!{/c} !-)!G4 | g4 | f2!-(!{/f} !-)!^c2 |!-(!{/^c} !-)!e4 | %76
 (3(ded) ^c/d/e/f/ |1 f4 | z4 | !-)!B4 | [D,D]4 :|2 ^c4 | d2 ^c2 || F,2 A,2 | ^B,2 ^D2 | F4 || %86
[M:6/4] x12 ||[K:Bb][M:6/8] G,6 | G,6 | G,DB DBD | G,DB DBD | CGe GeG | D,Dc DcD | G,DB DBD | %94
 G,DB DBD | A,Fc FcF | B,FB FBF | Ecg cgc | D=Bd _adB | Ecg cgc | =E^c=e ^aec | Fdf bdf | CGe GeG | %103
 ^CA=e AeA | D,A^f AfA | D,ca cac | D,=ec' ec'e | D,=ec' ec'e | D,^fc' fc'f | D,^fc' fc'f | %110
 D,^fc' fc'f | Dd'a d'ad' | =Ec'=e c'ec' | F=bf bfb | ^Fa^f afa ||[K:G] G,dD, efd | %116
 A,eD, !-(!f!-(!g!-)!f | D,cD !-(!d!-(!e!-)!d | F,^cD dD,B | G,dD, efd | A,eD, !-(!f!-(!g!-)!f | %121
 D,cD !-(!d!-(!e!-)!d | F,^cD dD,B | G,dD, efd | d=fG fGf | cge age | egA gAg | Ddf dfd | Deg ege | %129
 D=f^g fa^f | G,gb gbg | D,df dfd | D,Dc DcD | G,Bd gdB | G,gb gbg | ^cg_b gbg | %136
 Bdf !-(!e!-(!f!-)!d | Cce cec | ^C^A^c gcE | D,Dd DcD | G,DB DBD | D,ce ^efc | G,DB DcD | %143
 G,DB DcD | G,Bd gdB | G,Bd gdB | G,dg bgd | G,dg bgd | G,dg bgd | !fermata!G,3 !fermata![G,D]3 |] %150

